X: 563
T: Da yengtao
%%abc-version 2.0
%%abcx-abcm2ps-target-version 5.9.1 (29 Sep 2008)
%%abc-creator hum2abc beta
%%abcx-conversion-date 2013/10/02 07:52:30
%%abc-edited-by Helmut Schaffrath
%%humdrum-veritas 132836901
%%humdrum-veritas-data 3485750170
%%continueall 1
%%barnumbers 0
L: 1/16
M: 2/4
K: A
B2 c2 B c B A [I:setbarnb 1]| 
B c F2 F2 F2 | 
B2 B2 C2 C E | 
F2 F BF4 | 
F2 B2 B c B F | 
A2 F E2< D2 E | 
F2 F2 A3 D | 
B,8 |]  



